!!!COM:	Bach, Johann Sebastian
!!!OMV:	Allein Gott in der H&ouml;h sei Ehr
!!!OTL:	Allein Gott in der H&ouml;h sei Ehr
**kern	**fb	**kern	**kern	**kern	**kern	**kern	**kern	**kern	**kern
*part9	*part9	*part8	*part7	*part6	*part5	*part4	*part3	*part2	*part1
*staff9	*	*staff8	*staff7	*staff6	*staff5	*staff4	*staff3	*staff2	*staff1
*I"Continuo	*	*I"Voice	*I"Voice	*I"Voice	*I"Voice	*I"Oboe d'amore	*I"Oboe d'amore	*I"Horn in G	*I"Horn in G
*I'Cont.	*	*I'V	*I'V	*I'V	*I'V	*I'Ob. d'a.	*I'Ob. d'a.	*I'G Hn.	*I'G Hn.
*clefF4	*	*clefF4	*clefGv2	*clefG2	*clefG2	*clefG2	*clefG2	*clefG2	*clefG2
*Trd0c0	*	*	*	*	*	*	*	*	*
*k[f#]	*	*k[f#]	*k[f#]	*k[f#]	*k[f#]	*k[f#]	*k[f#]	*k[f#]	*k[f#]
*M4/4	*	*M4/4	*M4/4	*M4/4	*M4/4	*M4/4	*M4/4	*M4/4	*M4/4
4GG	.	4GG	8BL	8dL	8gL	8gL	8gL	8BL	8gL
.	.	.	8cJ	8f#J	8aJ	8f#J	8aJ	8dJ	8aJ
=2	=2	=2	=2	=2	=2	=2	=2	=2	=2
8GL	.	8GL	4d	4g	4b	4g	4b	4g	4b
8F#J	.	8F#J	.	.	.	.	.	.	.
4E	6	4E	4e	4g	4cc	4g	4cc	4g	4cc
4D	.	4D	4A	4f#	4dd	4f#	4dd	4a	4dd
4AA	5	4AA	4A	8eL	4cc	8eL	4cc	4a	4cc
.	6	.	.	8f#J	.	8f#J	.	.	.
=3	=3	=3	=3	=3	=3	=3	=3	=3	=3
8BBL	6	8BBL	4d	4.g	4b	4.g	4b	4g	4b
8CJ	.	8CJ	.	.	.	.	.	.	.
4D	4	4D	4d	.	4a	.	4a	4d	4a
.	3	.	.	8f#	.	8f#	.	.	.
4GG;	.	4GG;	4d;	4g;	4b;	4g;	4b;	4g;	4b;
4E	.	4E	4e	4g	4b	4g	4b	4g	4b
=4	=4	=4	=4	=4	=4	=4	=4	=4	=4
8BBL	6	8BBL	4d	4g	4b	4g	4b	4g	4b
8CJ	.	8CJ	.	.	.	.	.	.	.
4D	5 3	4D	4d	8f#L	8aL	4f#	8aL	8dL	8aL
.	6 4	.	.	8gJ	8bJ	.	8bJ	8gJ	8bJ
8AAL	.	8AAL	8eL	8aL	8ccL	16eLL	8ccL	8aL	8ccL
.	.	.	.	.	.	16f#J	.	.	.
8BBJ	6	8BBJ	8dJ	8gJ	8bJ	8gJ	8bJ	8gJ	8bJ
8CL	6 4 2	8CL	8dL	4f#	4a	4f#	4a	4d	4a
8DJ	.	8DJ	8cJ	.	.	.	.	.	.
=	=	=	=	=	=	=	=	=	=
8EL	.	8EL	4B	[4g	8.gL	[4g	8.gL	4B	8.gL
8DJ	._	8DJ	.	.	.	.	.	.	.
.	..	.	.	.	16aJk	.	16aJk	.	16aJk
8CL	6 5	8CL	8e	8gL]	4a	8gL]	4a	8r	4a
8DJ	.	8DJ	16dLL	8f#J	.	8f#J	.	32dLLL	.
.	.	.	.	.	.	.	.	32BJ	.
.	.	.	16cJJ	.	.	.	.	16dJJ	.
4GG;	.	4GG;	4B;	4d;	4g;	4g;	4g;	4B;	4g;
=5:|!	=5:|!	=5:|!	=5:|!	=5:|!	=5:|!	=5:|!	=5:|!	=5:|!	=5:|!
4G	.	4G	4B	4d	4g	4g	4g	4B	4g
=6	=6	=6	=6	=6	=6	=6	=6	=6	=6
!!pagebreak:original
4F#	6	4F#	4A	4d	4a	4d	4a	4d	4a
4Fn	4 2	4Fn	4G	4d	4b	4d	4b	4g	4b
4E	6	4E	4G	4e	4cc	8gL	4cc	4G	4cc
.	.	.	.	.	.	8aJ	.	.	.
4D	#4| 2	4D	4G#X	4e	4b	4b	4b	4r	4b
=7	=7	=7	=7	=7	=7	=7	=7	=7	=7
8CL	6	8CL	4A	8eL	4.a	8eL	4.a	2r	8.aL
8FnJ	5	8FnJ	.	8cJ	.	8cJ	.	.	.
.	.	.	.	.	.	.	.	.	16bJk
8DL	6 5 n	8DL	4d	8fnL	.	8fnL	.	.	4b
8EJ	#	8EJ	.	8eJ	8g#X	16eL	8g#X	.	.
.	.	.	.	.	.	16dJJ	.	.	.
4AA;	.	4AA;	4c;	4e;	4a;	4c;	4a;	4r;	4a;
8DL	.	8DL	4A	4f#X	4a	4f#X	4a	4d	4a
8CJ	.	8CJ	.	.	.	.	.	.	.
=8	=8	=8	=8	=8	=8	=8	=8	=8	=8
4BB	6	4BB	4d	4g	4b	4g	4b	4g	4b
4AA	nr6	4AA	4c	4fn	4cc	4fn	4cc	4a	4cc
4GG#X	6 5	4GG#X	4B	4e	4dd	4e	4dd	4b	4dd
4AA	5	4AA	8cL	8eL	4cc	8eL	4cc	4a	4cc
.	#6\	.	8dJ	8f#XJ	.	8f#XJ	.	.	.
=9	=9	=9	=9	=9	=9	=9	=9	=9	=9
8EL	.	8EL	4e	4.g	4b	4.g	4b	4g	4b
8DJ	.	8DJ	.	.	.	.	.	.	.
4C	6 5	4C	4E	.	4a	.	4a	4r	4a
.	4	.	.	16f#LL	.	16f#LL	.	.	.
.	3	.	.	16eJJ	.	16eJJ	.	.	.
4BB;	#	4BB;	4F#;	4d#X;	4b;	4d#X;	4b;	4r;	4b;
8EL	.	8EL	8GL	4e	4b	4e	4b	4g	4b
8F#J	.	8F#J	8AJ	.	.	.	.	.	.
=10	=10	=10	=10	=10	=10	=10	=10	=10	=10
!!pagebreak:original
4G	5	4G	8BL	8dnL	4b	8dL	4b	4g	4b
.	6	.	8cJ	8eJ	.	8eJ	.	.	.
8F#L	6	8F#L	8dL	8f#L	8aL	8f#L	8aL	8dL	8aL
8EJ	5 3	8EJ	8GJ	8gJ	8bJ	8gJ	8bJ	8gJ	8bJ
8D#XL	7 5	8D#XL	8F#L	8a	8ccL	8a	8ccL	8a	8ccL
8EJ	.	8EJ	16GL	4g	8bJ	4g	8bJ	4g	8bJ
.	.	.	16F#JJ	.	.	.	.	.	.
8C#XL	6 5	8C#XL	8EL	.	4a	.	4a	.	4a
8D#J	6 5	8D#J	8F#J	8f#	.	8f#	.	8B	.
=11	=11	=11	=11	=11	=11	=11	=11	=11	=11
8EL	.	8EL	4.G	8eL	8.gL	8eL	8.gL	4B	8.gL
8BBJ	6	8BBJ	.	8dJ	.	8dJ	.	.	.
.	.	.	.	.	16aJk	.	16aJk	.	16aJk
8CL	6 5	8CnL	.	8eL	4a	8eL	4a	8r	4a
8DJ	.	8DnJ	8F#	8dJ	.	8f#J	.	32dLLL	.
.	.	.	.	.	.	.	.	32BJ	.
.	.	.	.	.	.	.	.	16dJJ	.
4GG;	.	4GG;	4B;	4d;	4g;	4g;	4g;	4B;	4g;
=||	=||	=||	=||	=||	=||	=||	=||	=||	=||
*-	*-	*-	*-	*-	*-	*-	*-	*-	*-
!!!system-decoration: s1,s2,s3,s4,s5,s6,s7,s8,s9
